logos/globocom.svg

<?xml version="1.0" encoding="UTF-8" standalone="no"?>
<svg width="252px" height="252px" viewBox="0 0 252 252" version="1.1" xmlns="http://www.w3.org/2000/svg" xmlns:xlink="http://www.w3.org/1999/xlink">
    <!-- Generator: Sketch 40.3 (33839) - http://www.bohemiancoding.com/sketch -->
    <title>Group</title>
    <desc>Created with Sketch.</desc>
    <defs></defs>
    <g id="Logos" stroke="none" stroke-width="1" fill="none" fill-rule="evenodd">
        <g id="Artboard">
            <g id="Group">
                <rect id="Rectangle-2" fill="#FFFFFF" x="0" y="0" width="252" height="252"></rect>
                <path d="M75.6288506,129.539401 L75.6288506,98.8848602 C75.6288506,95.214261 73.347886,92.7621815 70.1534573,92.7621815 C67.1060228,92.7621815 65.3574158,94.4460884 64.6675644,97.3553256 C62.6139018,93.9892144 58.3550418,92.3036049 54.6225802,92.3036049 C43.5869456,92.3036049 36,102.638321 36,113.738088 C36,124.68547 41.9901569,133.670847 53.483233,133.670847 C58.5057251,133.670847 62.1022597,131.838527 64.3869133,128.466173 L64.5381641,128.466173 L64.5381641,131.068652 C64.5381641,136.660108 60.7146114,139.798066 55.3850773,139.798066 C49.0688656,139.798066 45.1879909,136.356471 41.6873715,136.356471 C39.5570902,136.356471 37.2738554,139.112755 37.2738554,141.173512 C37.2738554,147.222126 50.0583809,149.44435 54.547948,149.44435 C67.0313906,149.44435 75.6288506,142.782787 75.6288506,129.539401 L75.6288506,129.539401 Z M56.0692531,123.570527 C50.3611663,123.570527 47.5478442,119.402474 47.5478442,113.508232 C47.5478442,108.379609 50.3614501,102.4096 56.0692531,102.4096 C62.0818281,102.4096 64.5384479,108.532279 64.5384479,113.894447 C64.5381641,119.250088 61.9302935,123.570527 56.0692531,123.570527 L56.0692531,123.570527 Z M86.8065418,135.018767 C90.0333206,135.018767 92.3423786,132.543702 92.3423786,128.832523 L92.3423786,81.1899328 C92.3423786,77.4773352 90.0333206,75.0002838 86.8065418,75.0002838 C83.5746551,75.0002838 81.2687185,77.4773352 81.2687185,81.1899328 L81.2687185,128.832523 C81.2687185,132.543702 83.5743713,135.018767 86.8065418,135.018767 L86.8065418,135.018767 Z M113.788497,134.864678 C125.744122,134.864678 133.688054,125.145749 133.688054,113.662605 C133.688054,102.485084 125.511429,92.3033211 113.788497,92.3033211 C102.061592,92.3033211 93.8875207,102.485084 93.8875207,113.662605 C93.8875207,125.145749 101.835425,134.864678 113.788497,134.864678 L113.788497,134.864678 Z M113.788497,102.4096 C119.884785,102.4096 122.450373,108.379609 122.450373,113.662605 C122.450373,118.943898 119.805896,124.762372 113.788497,124.762372 C107.770814,124.762372 104.995801,118.943898 104.995801,113.662605 C104.995517,108.379609 107.694763,102.4096 113.788497,102.4096 L113.788497,102.4096 Z M146.123255,129.817498 C148.177485,133.181906 152.442872,134.864678 156.169942,134.864678 C167.207279,134.864678 174.797063,124.529678 174.797063,114.121181 C174.797063,103.401953 168.344924,92.3033211 156.551616,92.3033211 C152.741685,92.3033211 149.21212,93.6075402 146.320193,96.1294278 L146.320193,81.1292055 C146.320193,77.4543497 143.842291,75 140.641335,75 C137.446906,75 135.16282,77.4540659 135.16282,81.1292055 L135.16282,128.282004 C135.16282,131.959698 137.446906,134.404683 140.641335,134.404683 C143.687634,134.404683 145.439363,132.721911 146.123255,129.817498 L146.123255,129.817498 Z M154.917937,102.21323 C160.626591,102.21323 163.44644,108.258722 163.44644,113.464531 C163.44644,118.591452 160.626591,124.56288 154.917937,124.56288 C148.905646,124.56288 146.320193,118.440201 146.320193,113.079736 C146.320193,107.722959 149.060018,102.21323 154.917937,102.21323 L154.917937,102.21323 Z M196.04681,92.3036049 C184.294649,92.3036049 176.364055,102.485368 176.364055,113.662888 C176.364055,125.146033 184.061104,134.864962 196.04681,134.864962 C208.037907,134.864962 216,125.146033 216,113.662888 C216,102.485368 207.801808,92.3036049 196.04681,92.3036049 L196.04681,92.3036049 Z M196.04681,124.56288 C190.014938,124.56288 187.364502,118.748946 187.364502,113.464531 C187.364502,108.184657 189.939739,102.21323 196.04681,102.21323 C202.1553,102.21323 204.862207,108.184657 204.862207,113.464531 C204.862207,118.748946 202.079249,124.56288 196.04681,124.56288 L196.04681,124.56288 Z M70.892004,165.266094 C67.8062602,165.266094 65.4290967,167.791386 65.4290967,170.896143 C65.4290967,173.996075 67.8062602,176.523922 70.892004,176.523922 C73.9743425,176.523922 76.4854467,173.996075 76.4854467,170.896143 C76.4854467,167.791386 73.9743425,165.266094 70.892004,165.266094 L70.892004,165.266094 Z M94.1840631,148.38077 C97.2456863,148.38077 99.3751162,150.255088 101.771009,150.255088 C104.034096,150.255088 105.431108,147.645515 105.431108,145.636121 C105.431108,140.95075 97.5110137,139.808565 93.7181084,139.808565 C83.6004784,139.808565 76.5456065,148.448591 76.5456065,158.222005 C76.5456065,168.261881 83.4007024,176.494977 93.7181084,176.494977 C97.1764457,176.494977 105.431108,174.827813 105.431108,169.873143 C105.431108,167.594732 103.568141,165.653727 101.3025,165.653727 C100.171382,165.653727 96.976386,167.661135 94.5768045,167.661135 C89.3894404,167.661135 86.1286089,162.972927 86.1286089,158.222005 C86.1286089,153.269321 88.7262638,148.38077 94.1840631,148.38077 L94.1840631,148.38077 Z M123.254585,139.808565 C113.437754,139.808565 106.592874,148.302448 106.592874,157.915247 C106.592874,167.788265 113.243937,176.417507 123.254585,176.417507 C133.26807,176.417507 139.921404,167.788265 139.921404,157.915247 C139.921404,148.302448 133.074254,139.808565 123.254585,139.808565 L123.254585,139.808565 Z M123.254585,168.122549 C118.220742,168.122549 115.893806,162.459582 115.893806,157.914963 C115.893806,153.367223 118.154339,148.235194 123.254585,148.235194 C128.357385,148.235194 130.618201,153.367223 130.618201,157.914963 C130.618201,162.459582 128.294671,168.122549 123.254585,168.122549 L123.254585,168.122549 Z M179.694978,139.808565 C176.430174,139.808565 172.240838,141.6179 169.579051,144.693995 C167.04638,141.480554 163.652175,139.808565 159.662616,139.808565 C156.133903,139.808565 153.07228,141.285602 150.74279,143.82707 C150.409641,141.550078 148.812285,140.212374 146.350273,140.212374 C143.555113,140.212374 141.506274,142.35656 141.506274,145.570002 L141.506274,171.139052 C141.506274,174.35221 143.375768,176.491856 146.175185,176.491856 C148.966373,176.491856 151.024009,174.35221 151.024009,171.139052 L151.024009,154.203784 C151.024009,150.321775 152.87222,147.776901 156.79935,147.776901 C160.261376,147.776901 162.101358,150.322058 162.101358,154.203784 L162.101358,171.139052 C162.101358,174.35221 163.979082,176.491856 166.774242,176.491856 C169.570254,176.491856 171.620511,174.35221 171.620511,171.139052 L171.620511,154.203784 C171.620511,150.321775 174.105225,147.776901 177.632235,147.776901 C181.093126,147.776901 182.730778,150.322058 182.730778,154.203784 L182.730778,171.139052 C182.730778,174.35221 184.851695,176.491856 187.64345,176.491856 C190.442016,176.491856 192.19942,174.35221 192.19942,171.139052 L192.19942,152.532363 C192.198853,144.097505 187.482835,139.808565 179.694978,139.808565 L179.694978,139.808565 Z" id="Globo.com" fill="#0669DE"></path>
            </g>
        </g>
    </g>
</svg>

<?xml version="1.0" encoding="UTF-8" standalone="no"?>
<svg
   xmlns:dc="http://purl.org/dc/elements/1.1/"
   xmlns:cc="http://creativecommons.org/ns#"
   xmlns:rdf="http://www.w3.org/1999/02/22-rdf-syntax-ns#"
   xmlns:svg="http://www.w3.org/2000/svg"
   xmlns="http://www.w3.org/2000/svg"
   xmlns:sodipodi="http://sodipodi.sourceforge.net/DTD/sodipodi-0.dtd"
   xmlns:inkscape="http://www.inkscape.org/namespaces/inkscape"
   width="200"
   height="200"
   viewBox="0 0 200 200"
   version="1.1"
   id="svg2"
   inkscape:version="0.91 r13725"
   sodipodi:docname="globocom.svg">
  <metadata
     id="metadata17">
    <rdf:RDF>
      <cc:Work
         rdf:about="">
        <dc:format>image/svg+xml</dc:format>
        <dc:type
           rdf:resource="http://purl.org/dc/dcmitype/StillImage" />
        <dc:title>Group</dc:title>
      </cc:Work>
    </rdf:RDF>
  </metadata>
  <sodipodi:namedview
     pagecolor="#ffffff"
     bordercolor="#666666"
     borderopacity="1"
     objecttolerance="10"
     gridtolerance="10"
     guidetolerance="10"
     inkscape:pageopacity="0"
     inkscape:pageshadow="2"
     inkscape:window-width="1366"
     inkscape:window-height="744"
     id="namedview15"
     showgrid="false"
     inkscape:zoom="0.93650794"
     inkscape:cx="-11.211864"
     inkscape:cy="126"
     inkscape:window-x="0"
     inkscape:window-y="24"
     inkscape:window-maximized="1"
     inkscape:current-layer="svg2" />
  <!-- Generator: Sketch 40.3 (33839) - http://www.bohemiancoding.com/sketch -->
  <title
     id="title4">Group</title>
  <desc
     id="desc6">Created with Sketch.</desc>
  <defs
     id="defs8" />
  <g
     id="Logos"
     style="fill:none;fill-rule:evenodd;stroke:none;stroke-width:1"
     transform="matrix(0.77118644,0,0,0.77118644,2.8305086,2.8305086)">
    <g
       id="Artboard">
      <g
         id="Group">
        <rect
           id="Rectangle-2"
           x="0"
           y="0"
           width="252"
           height="252"
           style="fill:#ffffff" />
        <path
           d="m 75.628851,129.5394 0,-30.65454 c 0,-3.670599 -2.280965,-6.122679 -5.475394,-6.122679 -3.047434,0 -4.796041,1.683907 -5.485893,4.593145 C 62.613902,93.989214 58.355042,92.303605 54.62258,92.303605 43.586946,92.303605 36,102.63832 36,113.73809 c 0,10.94738 5.990157,19.93276 17.483233,19.93276 5.022492,0 8.619027,-1.83232 10.90368,-5.20468 l 0.151251,0 0,2.60248 c 0,5.59146 -3.823553,8.72942 -9.153087,8.72942 -6.316211,0 -10.197086,-3.4416 -13.697706,-3.4416 -2.130281,0 -4.413516,2.75628 -4.413516,4.81704 0,6.04862 12.784526,8.27084 17.274093,8.27084 12.483443,0 21.080903,-6.66156 21.080903,-19.90495 l 0,0 z m -19.559598,-5.96887 c -5.708087,0 -8.521409,-4.16806 -8.521409,-10.0623 0,-5.12862 2.813606,-11.09863 8.521409,-11.09863 6.012575,0 8.469195,6.12268 8.469195,11.48485 -2.84e-4,5.35564 -2.608155,9.67608 -8.469195,9.67608 l 0,0 z m 30.737289,11.44824 c 3.226779,0 5.535837,-2.47507 5.535837,-6.18625 l 0,-47.642587 c 0,-3.712598 -2.309058,-6.189649 -5.535837,-6.189649 -3.231887,0 -5.537823,2.477051 -5.537823,6.189649 l 0,47.642587 c 0,3.71118 2.305652,6.18625 5.537823,6.18625 l 0,0 z m 26.981958,-0.15409 c 11.95562,0 19.89955,-9.71893 19.89955,-21.20207 0,-11.17753 -8.17662,-21.359289 -19.89955,-21.359289 -11.72691,0 -19.900979,10.181759 -19.900979,21.359289 0,11.48314 7.947909,21.20207 19.900979,21.20207 l 0,0 z m 0,-32.45508 c 6.09628,0 8.66187,5.97001 8.66187,11.25301 0,5.28129 -2.64447,11.09976 -8.66187,11.09976 -6.01769,0 -8.7927,-5.81847 -8.7927,-11.09976 -2.8e-4,-5.283 2.69896,-11.25301 8.7927,-11.25301 l 0,0 z m 32.33475,27.4079 c 2.05423,3.36441 6.31962,5.04718 10.04669,5.04718 11.03734,0 18.62712,-10.335 18.62712,-20.7435 0,-10.71923 -6.45214,-21.817859 -18.24544,-21.817859 -3.80994,0 -7.3395,1.304219 -10.23143,3.826107 l 0,-15.000223 C 146.32019,77.45435 143.84229,75 140.64133,75 c -3.19442,0 -5.47851,2.454066 -5.47851,6.129205 l 0,47.152795 c 0,3.6777 2.28409,6.12268 5.47851,6.12268 3.0463,0 4.79803,-1.68277 5.48192,-4.58718 l 0,0 z m 8.79469,-27.60427 c 5.70865,0 8.5285,6.04549 8.5285,11.2513 0,5.12692 -2.81985,11.09835 -8.5285,11.09835 -6.01229,0 -8.59775,-6.12268 -8.59775,-11.48314 0,-5.35678 2.73983,-10.86651 8.59775,-10.86651 l 0,0 z m 41.12887,-9.909625 c -11.75216,0 -19.68276,10.181765 -19.68276,21.359285 0,11.48314 7.69705,21.20207 19.68276,21.20207 11.9911,0 19.95319,-9.71893 19.95319,-21.20207 0,-11.17752 -8.19819,-21.359285 -19.95319,-21.359285 l 0,0 z m 0,32.259275 c -6.03187,0 -8.68231,-5.81393 -8.68231,-11.09835 0,-5.27987 2.57524,-11.2513 8.68231,-11.2513 6.10849,0 8.8154,5.97143 8.8154,11.2513 0,5.28442 -2.78296,11.09835 -8.8154,11.09835 l 0,0 z M 70.892004,165.26609 c -3.085744,0 -5.462907,2.5253 -5.462907,5.63005 0,3.09993 2.377163,5.62778 5.462907,5.62778 3.082339,0 5.593443,-2.52785 5.593443,-5.62778 0,-3.10475 -2.511104,-5.63005 -5.593443,-5.63005 l 0,0 z m 23.292059,-16.88532 c 3.061623,0 5.191053,1.87432 7.586947,1.87432 2.26309,0 3.6601,-2.60958 3.6601,-4.61897 0,-4.68537 -7.920096,-5.82756 -11.713002,-5.82756 -10.11763,0 -17.172501,8.64003 -17.172501,18.41344 0,10.03988 6.855095,18.27298 17.172501,18.27298 3.458338,0 11.713002,-1.66717 11.713002,-6.62184 0,-2.27841 -1.86297,-4.21941 -4.12861,-4.21941 -1.13112,0 -4.326114,2.0074 -6.725696,2.0074 -5.187364,0 -8.448195,-4.6882 -8.448195,-9.43913 0,-4.95268 2.597655,-9.84123 8.055454,-9.84123 l 0,0 z m 29.070527,-8.57221 c -9.81684,0 -16.66172,8.49389 -16.66172,18.10669 0,9.87301 6.65107,18.50226 16.66172,18.50226 10.01348,0 16.66681,-8.62925 16.66681,-18.50226 0,-9.6128 -6.84715,-18.10669 -16.66681,-18.10669 l 0,0 z m 0,28.31399 c -5.03385,0 -7.36078,-5.66297 -7.36078,-10.20759 0,-4.54774 2.26053,-9.67977 7.36078,-9.67977 5.10279,0 7.36361,5.13203 7.36361,9.67977 0,4.54462 -2.32353,10.20759 -7.36361,10.20759 l 0,0 z m 56.44039,-28.31399 c -3.26481,0 -7.45414,1.80934 -10.11593,4.88543 -2.53267,-3.21344 -5.92688,-4.88543 -9.91643,-4.88543 -3.52872,0 -6.59034,1.47704 -8.91983,4.01851 -0.33315,-2.27699 -1.93051,-3.6147 -4.39252,-3.6147 -2.79516,0 -4.844,2.14419 -4.844,5.35763 l 0,25.56905 c 0,3.21316 1.8695,5.35281 4.66891,5.35281 2.79119,0 4.84883,-2.13965 4.84883,-5.35281 l 0,-16.93527 c 0,-3.88201 1.84821,-6.42688 5.77534,-6.42688 3.46203,0 5.30201,2.54516 5.30201,6.42688 l 0,16.93527 c 0,3.21316 1.87772,5.35281 4.67288,5.35281 2.79601,0 4.84627,-2.13965 4.84627,-5.35281 l 0,-16.93527 c 0,-3.88201 2.48471,-6.42688 6.01172,-6.42688 3.4609,0 5.09855,2.54516 5.09855,6.42688 l 0,16.93527 c 0,3.21316 2.12091,5.35281 4.91267,5.35281 2.79857,0 4.55597,-2.13965 4.55597,-5.35281 l 0,-18.60669 c -5.7e-4,-8.43486 -4.71659,-12.7238 -12.50444,-12.7238 l 0,0 z"
           id="Globo.com"
           inkscape:connector-curvature="0"
           style="fill:#0669de" />
      </g>
    </g>
  </g>
</svg>
